static/assets/images/tokens/bsdeth.svg

<svg width="256" height="256" viewBox="0 0 256 256" fill="none" xmlns="http://www.w3.org/2000/svg">
<path d="M128 256C198.692 256 256 198.692 256 128C256 57.3075 198.692 0 128 0C57.3075 0 0 57.3075 0 128C0 198.692 57.3075 256 128 256Z" fill="#1552F0"/>
<path d="M63.7139 141.152L126.998 231.541L194.038 135.787L126.998 24.4591L63.5929 129.751H148.93V141.152H63.7139Z" fill="white"/>
</svg>

<svg xmlns="http://www.w3.org/2000/svg" fill="none" viewBox="0 0 256 256"><path fill="#1552F0" d="M128 256c70.692 0 128-57.308 128-128S198.692 0 128 0 0 57.308 0 128s57.308 128 128 128"/><path fill="#fff" d="m63.714 141.152 63.284 90.389 67.04-95.754-67.04-111.328-63.405 105.292h85.337v11.401z"/></svg>
